X: 7017
T: Chief O'Neill's Favourite
R: hornpipe
M: 4/4
K: Dmajor
|:de|fefg afge|fdec dBAG|FDFD FGAB|=cAd^c A2 de|
fefg afge|fdec dBAG|FDFD GBAG|F2 D2 D2:|
|:DE|=F2FE FGAB|=cAdB =cAGB|Adde fded|cAdc A2de|
fefg afge|fdec dBAG|FDFD GBAG|F2 D2 D2:|

